public/images/icons/32x32/message_32_white.svg

<svg xmlns="http://www.w3.org/2000/svg" width="32" height="32" viewBox="0 0 32 32">
  <path fill="#FFF" d="M14.3489582,0 L1.65104178,0 C0.73961532,0.00103308809 0.00101013057,0.756424759 0,1.68856545 L0,10.3114345 C0.00101013057,11.2435752 0.73961532,11.9989669 1.65104178,12 L14.3489582,12 C15.2603847,11.9989669 15.9989899,11.2435752 16,10.3114345 L16,1.68856545 C15.9989899,0.756424759 15.2603847,0.00103308809 14.3489582,0 Z M15.1111111,1.68856545 L15.1111111,10.3114345 C15.1102978,10.3530911 15.1061902,10.394612 15.0988284,10.4355909 L10.7618702,6.00006727 L15.0988444,1.56440909 C15.1062008,1.60538845 15.1103031,1.64690938 15.1111111,1.68856545 Z M14.3489582,0.909090909 C14.3896921,0.909917351 14.4302939,0.914112856 14.4703662,0.921636364 L8.71154489,6.81143455 C8.31827732,7.21253504 7.68180979,7.21253504 7.28854222,6.81143455 L1.52963378,0.921636364 C1.56970615,0.914113375 1.61030789,0.909917875 1.65104178,0.909090909 L14.3489582,0.909090909 Z M0.901171556,10.4355909 C0.893809848,10.394612 0.889702224,10.3530911 0.888888889,10.3114345 L0.888888889,1.68856545 C0.889696935,1.64690938 0.893799208,1.60538845 0.901155556,1.56440909 L5.23816178,6.00003273 L0.901171556,10.4355909 Z M1.65104178,11.0909091 C1.61030789,11.0900821 1.56970615,11.0858866 1.52963378,11.0783636 L5.86663467,6.64278909 L6.65998222,7.45419091 C7.40057761,8.20987128 8.5995095,8.20987128 9.34010489,7.45419091 L10.1334098,6.64278909 L14.4703662,11.0783636 C14.4302938,11.0858866 14.3896921,11.0900821 14.3489582,11.0909091 L1.65104178,11.0909091 Z" transform="translate(8 10)"/>
</svg>

<svg height="32" viewBox="0 0 32 32" width="32" xmlns="http://www.w3.org/2000/svg"><path d="m14.3489582 0h-12.69791642c-.91142646.00103309-1.65003165.75642476-1.65104178 1.68856545v8.62286905c.00101013.9321407.73961532 1.6875324 1.65104178 1.6885655h12.69791642c.9114265-.0010331 1.6500317-.7564248 1.6510418-1.6885655v-8.62286905c-.0010101-.93214069-.7396153-1.68753236-1.6510418-1.68856545zm.7621529 1.68856545v8.62286905c-.0008133.0416566-.0049209.0831775-.0122827.1241564l-4.3369582-4.43552363 4.3369742-4.43565818c.0073564.04097936.0114587.08250029.0122667.12415636zm-.7621529-.77947454c.0407339.00082644.0813357.00502195.121408.01254545l-5.75882131 5.88979819c-.39326757.40110049-1.0297351.40110049-1.42300267 0l-5.75890844-5.88979819c.04007237-.00752298.08067411-.01171848.121408-.01254545zm-13.44778664 9.52649999c-.00736171-.0409789-.01146934-.0824998-.01228267-.1241564v-8.62286905c.00080805-.04165607.00491032-.083177.01226667-.12415636l4.33700622 4.43562364zm.74987022.6553182c-.04073389-.000827-.08133563-.0050225-.121408-.0125455l4.33700089-4.43557451.79334755.81140182c.74059539.75568037 1.93952728.75568037 2.68012267 0l.79330491-.81140182 4.3369564 4.43557451c-.0400724.007523-.0806741.0117185-.121408.0125455z" fill="#fff" transform="translate(8 10)"/></svg>
